polaris-icons/icons/new-icons/PhoneOutMajor.svg

<svg width="20" height="20" viewBox="0 0 20 20" fill="none" xmlns="http://www.w3.org/2000/svg">
<path fill-rule="evenodd" clip-rule="evenodd" d="M6.75065 4.5C5.46662 4.49966 4.53707 5.52521 4.70627 6.62728C5.08983 9.12543 6.00218 11.0858 7.41291 12.5171C8.8225 13.9472 10.7856 14.9059 13.3726 15.3032C14.474 15.4723 15.4989 14.5434 15.4989 13.2591L15.4989 12.5316C15.4989 12.418 15.4222 12.3186 15.3123 12.2898L13.4123 11.7918C13.351 11.7757 13.2859 11.7835 13.2301 11.8136L12.1628 12.3899C11.4724 12.7627 10.5253 12.8816 9.74116 12.3345C8.97221 11.798 8.19986 11.0158 7.6696 10.2441C7.1285 9.45654 7.24739 8.50918 7.625 7.81609L8.19548 6.76899V6.76899C8.22522 6.71342 8.23332 6.64781 8.21733 6.58682L7.71931 4.6868C7.6905 4.57686 7.59114 4.50019 7.47748 4.50019L6.75065 4.5ZM3.22365 6.85492C2.88988 4.68105 4.72075 2.99947 6.75104 3L7.47747 3.00019V3.00019C8.273 3.00028 8.96859 3.53693 9.1703 4.30648L9.66832 6.2065C9.78079 6.63559 9.72612 7.09137 9.51535 7.48169L9.51402 7.48416L8.94219 8.53373C8.75066 8.88527 8.77331 9.20164 8.9059 9.3946C9.3357 10.0201 9.98074 10.6726 10.5995 11.1043C10.7866 11.2349 11.0984 11.26 11.4501 11.0701L12.5174 10.4937C12.9077 10.283 13.3635 10.2283 13.7926 10.3408L15.6926 10.8388C16.4622 11.0405 16.9989 11.736 16.9989 12.5316L16.9989 13.2591C16.9989 15.2886 15.3188 17.1196 13.1449 16.7858C10.3065 16.35 8.02462 15.2746 6.3446 13.5701C4.66573 11.8667 3.64389 9.59201 3.22365 6.85492ZM11.9989 4.26018C11.9989 3.84597 12.3347 3.51018 12.7489 3.51018L15.7489 3.51018C16.1631 3.51018 16.4989 3.84597 16.4989 4.26018V7.26018C16.4989 7.67439 16.1631 8.01018 15.7489 8.01018C15.3347 8.01018 14.9989 7.67439 14.9989 7.26018V6.07084L12.2792 8.79051C11.9863 9.0834 11.5114 9.0834 11.2185 8.79051C10.9256 8.49762 10.9256 8.02274 11.2185 7.72985L13.9382 5.01018L12.7489 5.01018C12.3347 5.01018 11.9989 4.67439 11.9989 4.26018Z" fill="#4A4A4A"/>
</svg>

<svg viewBox="0 0 20 20" xmlns="http://www.w3.org/2000/svg"><path fill-rule="evenodd" d="M6.75 4.5c-1.283 0-2.213 1.025-2.044 2.127.384 2.498 1.296 4.459 2.707 5.89 1.41 1.43 3.373 2.389 5.96 2.786 1.101.17 2.126-.76 2.126-2.044v-.727a.25.25 0 0 0-.187-.242l-1.9-.498a.25.25 0 0 0-.182.022l-1.067.576c-.69.373-1.638.492-2.422-.056a8.678 8.678 0 0 1-2.071-2.09c-.542-.787-.423-1.735-.045-2.428l.57-1.047a.252.252 0 0 0 .022-.182l-.498-1.9a.25.25 0 0 0-.242-.187h-.726Zm-3.526 2.355c-.334-2.174 1.497-3.856 3.527-3.855h.726a1.75 1.75 0 0 1 1.693 1.306l.498 1.9c.113.43.058.885-.153 1.276l-.001.002-.572 1.05c-.191.351-.169.668-.036.86a7.184 7.184 0 0 0 1.694 1.71c.187.13.498.156.85-.034l1.067-.576a1.75 1.75 0 0 1 1.276-.153l1.9.498a1.75 1.75 0 0 1 1.306 1.693v.727c0 2.03-1.68 3.86-3.854 3.527-2.838-.436-5.12-1.511-6.8-3.216-1.68-1.703-2.701-3.978-3.121-6.715Zm8.775-2.595a.75.75 0 0 1 .75-.75h3a.75.75 0 0 1 .75.75v3a.75.75 0 0 1-1.5 0v-1.19l-2.72 2.72a.75.75 0 0 1-1.06-1.06l2.72-2.72h-1.19a.75.75 0 0 1-.75-.75Z" fill="#5C5F62"/></svg>
